!!!!SEGMENT: pl-lzu--m-15111--001-040_noskowski-zygmunt--spiewnik-dla-dzieci-op-34-40-dozynki.krn
!!!cenid: 18xx:4737
!!!COM: Noskowski, Zygmunt
!!!COM-rismID: pe106604
!!!CDT: 1846/05/02-1909/07/23
!!!CNT: Polish
!!!GTL: Śpiewnik dla dzieci, op. 34
!!!OTL: 40. Dożynki
!!!OMV: 040
!!!PDT: 1890
!!!AGN: Secular; Song; Children
!!!YEC: Copyright 2022 Narodowy Instytut Fryderyka Chopina (https://polishscores.org)
!!!YEM: License CC-BY-4.0 (https://creativecommons.org/licenses/by/4.0)
!!!SMS-siglum: PL-LŹu
!!!SMS-shelfmark: M 15111
!!!SMS-variant:
!!!SMS-altvar:
!!!SMS-shelfwork: 001-040 G
!!!NIFC-rismSourceID: 1001234040
!!!NIFC-rismChildID: 1001234040
!!!NIFC-islandoraID: pl-lzu:5455
!!!URL-pdf-islandora: https://repozytorium.nifc.pl/islandora/object/pl-lzu%3A5455/datastream/PDF/view
!!!URL-scan: https://polish.musicsources.pl/pl/lokalizacje/galeria/druki-muzyczne/23228/49 @EN{Scan on Polish Music Sources Website} @PL{Skany w portalu Dziedzictwo Muzyki Polskiej w otwartym dostępie}
!!!IIIF:
!!!ONB-nifc:
!!!AIN: 1 piano 1 vox
!!!key: A-
!!!OMD: Allegretto.
**kern	**kern	**dynam	**kern	**text	**text	**text	**dynam
*part2	*part2	*part2	*part1	*part1	*part1	*part1	*part1
*staff3	*staff2	*staff2,3	*staff1	*staff1	*staff1	*staff1	*staff1
*I"[Piano]	*I"[Piano]	*	*I"[Voice]	*	*	*	*
*I'pf	*I'pf	*	*I'V	*	*	*	*
*Ipiano	*Ipiano	*	*Ivox	*	*	*	*
*ICklav	*ICklav	*	*ICvox	*	*	*	*
*IGacomp	*IGacomp	*	*IGsolo	*	*	*	*
*>[A,A,A]	*>[A,A,A]	*>[A,A,A]	*>[A,A,A]	*>[A,A,A]	*>[A,A,A]	*>[A,A,A]	*>[A,A,A]
*>A	*>A	*>A	*>A	*>A	*>A	*>A	*>A
*clefF4	*clefG2	*	*clefG2	*	*	*	*
*k[b-e-a-d-]	*k[b-e-a-d-]	*	*k[b-e-a-d-]	*	*	*	*
*A-:	*A-:	*	*A-:	*	*	*	*
*M2/4	*M2/4	*	*M2/4	*	*	*	*
=1	=1	=1	=1	=1	=1	=1	=1
*^	*^	*	*	*	*	*	*
(8E-/	2AA-\	(<4a-/	2c\	f	2r	.	.	.	.
4En/	.	.	.	.	.	.	.	.	.
.	.	8g/L)	.	.	.	.	.	.	.
8F/)	.	8f/J	.	.	.	.	.	.	.
*	*	*v	*v	*	*	*	*	*	*
=2	=2	=2	=2	=2	=2	=2	=2	=2
(8F#X/	2AA-\	2e- 2d-/	.	2r	.	.	.	.
4G/	.	.	.	.	.	.	.	.
8Fn/)	.	.	.	.	.	.	.	.
=3	=3	=3	=3	=3	=3	=3	=3	=3
*	*	*^	*	*	*	*	*	*
(8E-/	2AA-\	(<4a-/	2c\	.	2r	.	.	.	.
4En/	.	.	.	.	.	.	.	.	.
.	.	8g/L)	.	.	.	.	.	.	.
8F/)	.	8f/J	.	.	.	.	.	.	.
*	*	*v	*v	*	*	*	*	*	*
=4	=4	=4	=4	=4	=4	=4	=4	=4
*	*	*	*	*	*v:1	*v:2	*v:3	*
(8F#X/	4.AA-\	4.e- 4.d-/	.	4r	.	.	.	.
4G/	.	.	.	.	.	.	.	.
.	.	.	.	8r	.	.	.	.
!	!	!	!	!	!	!	!	!LO:DY:rj
8E-/)	8r	8e-/	.	8e-/	Ma-	Przy-	Bo-	f
*v	*v	*	*	*	*	*	*	*
=5	=5	=5	=5	=5	=5	=5	=5
*	*^	*	*	*	*	*	*
!	!	!	!LO:DY:rj	!	!	!	!	!
4.E- 4.AA-/	4cc/	4.e- 4.c\	mf	4cc\	-mu-	-nie-	-daj	.
.	8a-/L	.	.	8a-/	-niu!	-śli	się	.
8E- 8AA-/	8a-/J	8e- 8c\	.	8a-/	Ta-	nam	te	.
=6	=6	=6	=6	=6	=6	=6	=6	=6
4.E- 4.AA-/	4dd-/	4.g 4.d-\	.	4dd-\	-tu-	wie-	rę-	.
.	8cc/L	.	.	(8cc\L	-niu!	-niec	-ce	.
8E- 8AA-/	8b-/J	8g\	.	8b-\J)	.	.	.	.
*	*v	*v	*	*	*	*	*	*
!!LO:LB:g=original
=7	=7	=7	=7	=7	=7	=7	=7
*	*	*	*	*v:1	*v:2	*v:3	*
4.E- 4.AA-/	8.ccL 8.a- 8.e-/	.	8.cc\	O-	Z kło-	Z na-	.
.	16dd-Jk 16b-/	.	16dd-\	-twie-	-sów	-sze-	.
.	8ee-L 8cc\	.	8ee-\	-raj-	na-	-mi	.
8E- 8AA-/	8dd-J 8b-\	.	8dd-\	-cie	-szej	złą-	.
=8	=8	=8	=8	=8	=8	=8	=8
4.E- 4.AA-/	(8ccL 8a-/	.	(8cc\L	wro-	zie-	-czy-	.
.	8b-J 8e-/	.	8b-\J)	.	.	.	.
.	4a- 4c/)	.	4a-,/	-ta,	-mi,	-ły,	.
8E- 8AA-/	.	.	.	.	.	.	.
=9	=9	=9	=9	=9	=9	=9	=9
4.E- 4.EE-/	8.b-L 8.d-/	.	8.b-/	Nio-	Ślicz-	Co	.
.	16g/Jk	.	16g/	-są	-nie	ten	.
.	8f/L	.	8f/	nam	prze-	śli-	.
8E- 8EE-/	8e-J 8d-/	.	8e-/	tu	-wi-	-czny	.
=10	=10	=10	=10	=10	=10	=10	=10
4.E- 4.AA-/	(8a-L 8c/	.	(8a-/L	wie-	-ja-	wie-	.
.	8b-J 8e-/	.	8b-/J)	.	.	.	.
.	4cc 4a-/)	.	4cc,\	-niec	-ny	-niec	.
8E- 8AA-/	.	.	.	.	.	.	.
=11	=11	=11	=11	=11	=11	=11	=11
4.E- 4.EE-/	8.b-L 8.d-/	.	8.b-/	Ze	Wstę-	Z zło-	.
.	16g/Jk	.	16g/	szcze-	-ga-	-tych	.
.	8f/L	.	8f/	-re-	-mi	zbóż	.
8E- 8EE-/	8e-J 8d-/	.	8e-/	-go	kra-	u-	.
!!LO:PB:g=original
=12	=12	=12	=12	=12	=12	=12	=12
*	*	*	*	*v:1	*v:2	*v:3	*
4.E- 4.AA-/	4a- 4c/	.	4a-/	zło-	-śne-	-wi-	.
.	4a- 4c/	.	4a-/	-ta!	-mi!	-ły.	.
8E- 8AA-/	.	.	.	.	.	.	.
=13	=13	=13	=13	=13	=13	=13	=13
!	!	!LO:DY:rj	!LO:TX:a:i:t=Chór.	!	!	!	!LO:DY:rj
8E-L 8EE-/	8.e-L 8.d-/	f	8.e- 8.d-/	Graj-	.	.	f
8E-/J	.	.	.	.	.	.	.
.	16fJk 16d-/	.	16f 16d-/	-że,	.	.	.
8E-\L	8gL 8d-/	.	8g 8d-/	graj-	.	.	.
8E-\J	8a-J 8d-/	.	8a- 8d-/	-ku,	.	.	.
=14	=14	=14	=14	=14	=14	=14	=14
8E-\L	8b-L 8d-/	.	8b- 8d-/	a	.	.	.
8E-\J	8ccJ 8e-/	.	8cc 8e-/	we-	.	.	.
8E-L 8AA-\	8b-L 8d-/	.	8b- 8d-/	-so-	.	.	.
8E-J 8AA-\	8a-J 8c/	.	8a- 8c,/	-ło,	.	.	.
=15	=15	=15	=15	=15	=15	=15	=15
8E-L 8EE-\	8.e-L 8.d-/	.	8.e- 8.d-/	Bo	.	.	.
8E-\J	.	.	.	.	.	.	.
.	16fJk 16d-/	.	16f 16d-/	dziś	.	.	.
8E-\L	8gL 8d-/	.	8g 8d-/	wszys-	.	.	.
8E-\J	8a-J 8d-/	.	8a- 8d-/	-cy	.	.	.
!!LO:LB:g=original
=16	=16	=16	=16	=16	=16	=16	=16
*	*	*	*	*v:1.2.3.	*	*	*
8E-\L	8b-L 8d-/	.	8b- 8d-/	sta-	.	.	.
8E-\J	8dd-J 8f/	.	8dd- 8f/	-niem	.	.	.
8E-\L	8ccL 8e-/	.	8cc 8e-/	wko-	.	.	.
8B-J 8E- 8D-\	8b-J 8g/	.	8b- 8g,/	-ło,	.	.	.
=17	=17	=17	=17	=17	=17	=17	=17
*	*	*	*^	*	*	*	*
4.c 4.A- 4.C^\	4.ee- 4.a- 4.e-^/	.	4.ee- 4.a-^\	4.ryy	Plon	.	.	.
8ryy	8a-/	.	8a-/	8a-\	przy-	.	.	.
=18	=18	=18	=18	=18	=18	=18	=18	=18
*	*^	*	*	*	*	*	*	*
4B- 4BB-\	(<8ee-/L	4a- 4f\	.	(<8ee-/L	4f\	-nie-	.	.	.
.	8dd-/J)	.	.	8dd-/J)	.	.	.	.	.
4E- 4EE-/	(8ccL 8g 8e-/	4ryy	.	(8ccL 8e-/	4ryy	-śli,	.	.	.
.	8b-J 8d-/)	.	.	8b-J 8d-/)	.	.	.	.	.
=19	=19	=19	=19	=19	=19	=19	=19	=19	=19
4E- 4AA-/	2a-/	(>4c\	.	[2a-/	(4c\	plon!	.	.	.
4F 4D-\	.	8d-\L)	.	.	4d-\	.	.	.	.
.	.	8f\J	.	.	.	.	.	.	.
=20	=20	=20	=20	=20	=20	=20	=20	=20	=20
4E- 4AA-/	4a-/	4e- 4c\	.	4a-/]	4c\)	.	.	.	.
4r	4r	4ryy	.	4r	4ryy	.	.	.	.
*	*v	*v	*	*	*	*	*	*	*
*	*	*	*v	*v	*	*	*	*
=:|!	=:|!	=:|!	=:|!	=:|!	=:|!	=:|!	=:|!
*-	*-	*-	*-	*-	*-	*-	*-
!!!system-decoration: p1{p2}
!!!RDF**kern: > = above
!!!RDF**kern: < = below
!!!ENC: Andrzej Gręziak
!!!END: 2025-03-06
!!!ENC: Marta Lawrence
!!!END: 2025-03-23
